svgs/sharp-light/swap.svg

<svg xmlns="http://www.w3.org/2000/svg" viewBox="0 0 640 512"><!--! Font Awesome Pro 6.6.0 by @fontawesome - https://fontawesome.com License - https://fontawesome.com/license (Commercial License) Copyright 2024 Fonticons, Inc. --><path d="M48 160l-32 0 0-32 0-8L90.2 39.6 112 16l21.8 23.6L208 120l0 8 0 32-32 0-48 0 0 288 176 0 0-400 0-16 16 0 208 0 16 0 0 16 0 304 48 0 32 0 0 32 0 8-74.2 80.4L528 496l-21.8-23.6L432 392l0-8 0-32 32 0 48 0 0-288L336 64l0 400 0 16-16 0-208 0-16 0 0-16 0-304-48 0zM528 384l-59.8 0L528 448.8 587.8 384 528 384s0 0 0 0s0 0 0 0zM171.8 128L112 63.2 52.2 128l119.7 0z"/></svg>

<svg xmlns="http://www.w3.org/2000/svg" viewBox="0 0 640 512"><!--! Font Awesome Pro 6.4.2 by @fontawesome - https://fontawesome.com License - https://fontawesome.com/license (Commercial License) Copyright 2023 Fonticons, Inc. --><path d="M48 160H16V128v-8L90.2 39.6 112 16l21.8 23.6L208 120v8 32H176 128V448H304V48 32l16 0 208 0h16V48l0 304h48 32v32 8l-74.2 80.4L528 496l-21.8-23.6L432 392v-8V352h32 48V64L336 64l0 400v16H320 112 96V464 160H48zM528 384H468.2L528 448.8 587.8 384H528s0 0 0 0s0 0 0 0zM171.8 128L112 63.2 52.2 128H171.8z"/></svg>
